icons/src/scalable/default/ui/checkbox-mixed-symbolic.svg

<svg version="1.1" viewBox="0 0 16 16" xmlns="http://www.w3.org/2000/svg">
 <g transform="translate(-401 -339)">
  <path transform="translate(401 339)" d="m3.5 1a2.506 2.506 0 0 0-2.5 2.5v9c0 1.376 1.124 2.5 2.5 2.5h9c1.376 0 2.5-1.124 2.5-2.5v-9c0-1.376-1.124-2.5-2.5-2.5h-9zm0 1h9c0.84 0 1.5 0.66 1.5 1.5v9c0 0.84-0.66 1.5-1.5 1.5h-9c-0.84 0-1.5-0.66-1.5-1.5v-9c0-0.84 0.66-1.5 1.5-1.5zm0.5 5v2h8v-2h-8z" fill="#bebebe" style="font-feature-settings:normal;font-variant-alternates:normal;font-variant-caps:normal;font-variant-ligatures:normal;font-variant-numeric:normal;font-variant-position:normal;isolation:auto;mix-blend-mode:normal;shape-padding:0;text-decoration-color:#000000;text-decoration-line:none;text-decoration-style:solid;text-indent:0;text-orientation:mixed;text-transform:none"/>
 </g>
</svg>

<?xml version="1.0" encoding="UTF-8" standalone="no"?>
<svg
   xmlns:osb="http://www.openswatchbook.org/uri/2009/osb"
   xmlns:dc="http://purl.org/dc/elements/1.1/"
   xmlns:cc="http://creativecommons.org/ns#"
   xmlns:rdf="http://www.w3.org/1999/02/22-rdf-syntax-ns#"
   xmlns:svg="http://www.w3.org/2000/svg"
   xmlns="http://www.w3.org/2000/svg"
   xmlns:sodipodi="http://sodipodi.sourceforge.net/DTD/sodipodi-0.dtd"
   xmlns:inkscape="http://www.inkscape.org/namespaces/inkscape"
   sodipodi:docname="checkbox-mixed-symbolic.svg"
   inkscape:export-filename="./check-symbolic.symbolic.png"
   inkscape:export-xdpi="96"
   inkscape:export-ydpi="96"
   height="16"
   id="svg7384"
   version="1.1"
   inkscape:version="1.0.2 (e86c870879, 2021-01-15)"
   width="16">
  <metadata
     id="metadata90">
    <rdf:RDF>
      <cc:Work
         rdf:about="">
        <dc:format>image/svg+xml</dc:format>
        <dc:type
           rdf:resource="http://purl.org/dc/dcmitype/StillImage" />
        <dc:title>Gnome Symbolic Icon Theme</dc:title>
      </cc:Work>
    </rdf:RDF>
  </metadata>
  <sodipodi:namedview
     inkscape:bbox-nodes="true"
     inkscape:bbox-paths="true"
     bordercolor="#666666"
     borderopacity="1"
     inkscape:current-layer="layer9"
     inkscape:cx="11.399074"
     inkscape:cy="6.5399214"
     gridtolerance="10"
     inkscape:guide-bbox="true"
     guidetolerance="10"
     id="namedview88"
     inkscape:object-nodes="true"
     inkscape:object-paths="false"
     objecttolerance="10"
     pagecolor="#ffffff"
     inkscape:pageopacity="0"
     inkscape:pageshadow="2"
     showborder="true"
     showgrid="true"
     showguides="true"
     inkscape:snap-bbox="true"
     inkscape:snap-bbox-midpoints="false"
     inkscape:snap-global="true"
     inkscape:snap-grids="true"
     inkscape:snap-nodes="true"
     inkscape:snap-others="true"
     inkscape:snap-to-guides="true"
     inkscape:window-height="1043"
     inkscape:window-maximized="1"
     inkscape:window-width="1920"
     inkscape:window-x="1920"
     inkscape:window-y="0"
     inkscape:zoom="32"
     inkscape:showpageshadow="false"
     inkscape:document-rotation="0">
    <inkscape:grid
       dotted="false"
       empspacing="2"
       enabled="true"
       id="grid4866"
       originx="-159.99995"
       originy="120"
       snapvisiblegridlinesonly="true"
       spacingx="1px"
       spacingy="1px"
       type="xygrid"
       visible="true" />
  </sodipodi:namedview>
  <title
     id="title9167">Gnome Symbolic Icon Theme</title>
  <defs
     id="defs7386">
    <linearGradient
       gradientTransform="matrix(-2.7365795,0.28202934,-0.18908311,-0.99988321,239.54008,-879.45557)"
       id="linearGradient19282"
       osb:paint="solid">
      <stop
         id="stop19284"
         offset="0"
         style="stop-color:#666666;stop-opacity:1;" />
    </linearGradient>
  </defs>
  <g
     inkscape:groupmode="layer"
     id="layer9"
     inkscape:label="status"
     style="display:inline;opacity:1"
     transform="translate(-401.00015,-339)">
    <path
       id="path2"
       style="line-height:normal;font-variant-ligatures:normal;font-variant-position:normal;font-variant-caps:normal;font-variant-numeric:normal;font-variant-alternates:normal;font-feature-settings:normal;text-indent:0;text-align:start;text-decoration:none;text-decoration-line:none;text-decoration-style:solid;text-decoration-color:#000000;text-transform:none;text-orientation:mixed;shape-padding:0;isolation:auto;mix-blend-mode:normal;marker:none;fill:#bebebe;fill-opacity:1"
       d="M 3.5 1 A 2.506 2.506 0 0 0 1 3.5 L 1 12.5 C 1 13.876 2.124 15 3.5 15 L 12.5 15 C 13.876 15 15 13.876 15 12.5 L 15 3.5 C 15 2.124 13.876 1 12.5 1 L 3.5 1 z M 3.5 2 L 12.5 2 C 13.34 2 14 2.66 14 3.5 L 14 12.5 C 14 13.34 13.34 14 12.5 14 L 3.5 14 C 2.66 14 2 13.34 2 12.5 L 2 3.5 C 2 2.66 2.66 2 3.5 2 z M 4 7 L 4 9 L 12 9 L 12 7 L 4 7 z "
       transform="translate(401.00015,339)" />
  </g>
  <g
     inkscape:groupmode="layer"
     id="layer10"
     inkscape:label="devices"
     style="display:inline"
     transform="translate(-401.00015,-339)" />
  <g
     inkscape:groupmode="layer"
     id="layer11"
     inkscape:label="apps"
     transform="translate(-401.00015,-339)" />
  <g
     inkscape:groupmode="layer"
     id="layer13"
     inkscape:label="places"
     style="display:inline"
     transform="translate(-401.00015,-339)" />
  <g
     inkscape:groupmode="layer"
     id="layer14"
     inkscape:label="mimetypes"
     transform="translate(-401.00015,-339)" />
  <g
     inkscape:groupmode="layer"
     id="layer15"
     inkscape:label="emblems"
     style="display:inline"
     transform="translate(-401.00015,-339)" />
  <g
     inkscape:groupmode="layer"
     id="g71291"
     inkscape:label="emotes"
     style="display:inline"
     transform="translate(-401.00015,-339)" />
  <g
     inkscape:groupmode="layer"
     id="g4953"
     inkscape:label="categories"
     style="display:inline"
     transform="translate(-401.00015,-339)" />
  <g
     inkscape:groupmode="layer"
     id="layer12"
     inkscape:label="actions"
     style="display:inline"
     transform="translate(-401.00015,-339)" />
</svg>
